X:1
T:Title
%%score { 1 | 2 }
L:1/8
M:3/4
K:F
V:1 treble nm="Grand Piano"
V:2 bass 
V:1
 z2 z2[Q:1/4=100] [CFA]>[CGB] | [CAc]3 [CFA] [CGB]>[B,EG] | F2 C2 (3FGA | [EG]3 [EG] [FA]>[GB] | %4
 [FA]4 [FA]>[GB] | [Ac]3 [FA] [GB]>[EG] | F2 C2 (3FGA | [EG]>[EG] [Ec]2 E2 | F4 A2 | A3 D F>F | %10
 [^CE]2 D2 F>F | G3 E [DF]>[=B,D] | C4 A2 | c3 A [CGB]>[B,EG] |[M:7/8] [A,F]2 [DFB]3 [DGB]>[DGB] | %15
[M:3/4] [FA]>[EG] [Ec]2 E2 |[M:2/4] F4 |] %17
V:2
 z2 z2 F,>F, | F,3 F, C,>C, | [F,A,C]2 [F,A,]2 (3[F,-A,C-][F,B,C][F,CF] | %3
 [C,C]3 [C,C] [C,C]>[C,C] | [F,C]4 [F,C]>[F,C] | [F,C]3 [F,C] [C,C]>[C,B,] | %6
 [F,A,C]2 [F,A,]2 (3[F,-A,C-][F,B,C][F,CF] | [C,C]>[C,C] [C,G,]2 [C,B,C]2 | [F,A,C]4 [F,C]2 | %9
 [D,F,D]3 [D,F,] [D,A,D]>[D,A,D] | [A,,G,]2 [D,F,]2 [D,F,A,]>[D,F,A,] | %11
 [C,E,C]3 [C,G,C] [G,,G,]>[G,,F,] | [C,E,]4 [F,C]2 | [F,A,F]3 [F,CF] C,>C, | %14
[M:7/8] D,2 B,,3 G,,>G,, |[M:3/4] [C,C]>[C,C] [C,G,]2 [C,B,C]2 |[M:2/4] [F,A,C]4 |] %17

